public/images/cy9.svg

<svg width="100" height="100" viewBox="0 0 100 100" fill="none" xmlns="http://www.w3.org/2000/svg">
<path d="M3.891 63.8527L1 52.0218H2.47L4.136 59.7781C4.283 60.5636 4.43 61.3981 4.577 62.1836C4.871 60.9072 5.018 60.1709 5.067 59.9745L7.125 51.9727H8.84L10.408 57.9618C10.8 59.4345 11.094 60.8581 11.241 62.1345C11.388 61.3981 11.535 60.5145 11.78 59.5818L13.495 51.9727H14.916L11.927 63.8036H10.555L8.252 54.82C8.056 54.0836 7.958 53.5927 7.909 53.4454C7.811 53.9854 7.713 54.4272 7.615 54.82L5.312 63.8527H3.891ZM16.484 63.8527V52.0218H17.905V63.8527H16.484ZM20.453 63.8527V52.0218H25.255C26.235 52.0218 26.97 52.12 27.46 52.3163C27.95 52.5127 28.342 52.9054 28.685 53.4454C28.979 53.9854 29.126 54.5745 29.126 55.2127C29.126 56.0472 28.881 56.7345 28.391 57.3236C27.901 57.9127 27.117 58.2563 26.088 58.4036C26.48 58.6 26.774 58.7963 26.97 58.9927C27.411 59.4345 27.803 59.9254 28.146 60.5636L30.008 63.8036H28.195L26.774 61.3491C26.333 60.6618 25.99 60.0727 25.745 59.7291C25.451 59.3363 25.255 59.0909 25.01 58.9436C24.814 58.7963 24.569 58.6981 24.373 58.6491C24.177 58.6 23.883 58.6 23.54 58.6H21.874V63.8527H20.453ZM21.874 57.2254H24.961C25.598 57.2254 26.137 57.1272 26.48 56.98C26.872 56.8327 27.117 56.5872 27.313 56.2927C27.509 55.9491 27.607 55.6054 27.607 55.2127C27.607 54.6727 27.411 54.1818 27.068 53.8381C26.676 53.4945 26.088 53.2981 25.304 53.2981H21.874V57.2254ZM31.38 63.8527V52.0218H39.22V53.3963H32.85V57.0291H38.828V58.4036H32.801V62.4291H39.416V63.8036H31.38V63.8527ZM40.788 60.0236L42.895 59.7781C43.042 60.5636 43.287 61.1527 43.679 61.4963C44.12 61.84 44.61 62.0363 45.296 62.0363C45.982 62.0363 46.521 61.8891 46.864 61.5454C47.207 61.2018 47.403 60.8581 47.403 60.4163C47.403 60.1218 47.305 59.8763 47.158 59.68C47.011 59.4836 46.766 59.3363 46.374 59.1891C46.129 59.0909 45.541 58.9436 44.61 58.6491C43.434 58.3545 42.601 57.9618 42.16 57.4709C41.474 56.8327 41.18 56.0472 41.18 55.1145C41.18 54.5254 41.327 53.9363 41.67 53.4454C41.964 52.9054 42.454 52.5127 43.042 52.2672C43.63 51.9727 44.316 51.8745 45.149 51.8745C46.521 51.8745 47.55 52.2181 48.236 52.8563C48.922 53.4945 49.265 54.3781 49.314 55.4581L47.109 55.5563C47.011 54.9672 46.815 54.5254 46.521 54.2309C46.227 53.9854 45.737 53.8381 45.149 53.8381C44.512 53.8381 44.022 53.9854 43.679 54.28C43.434 54.4763 43.336 54.7218 43.336 55.0163C43.336 55.3109 43.434 55.5563 43.679 55.7527C43.973 55.9981 44.61 56.2927 45.688 56.5381C46.766 56.8327 47.55 57.0781 48.04 57.3727C48.53 57.6672 48.971 58.06 49.216 58.5509C49.51 59.0418 49.657 59.68 49.657 60.4163C49.657 61.1036 49.461 61.7418 49.118 62.3309C48.775 62.92 48.285 63.3618 47.648 63.6563C47.011 63.9509 46.227 64.0981 45.296 64.0981C43.924 64.0981 42.895 63.7545 42.16 63.0672C41.376 62.3309 40.935 61.3 40.788 60.0236ZM51.47 63.8527V52.0218H53.675V56.6854H57.938V52.0218H60.143V63.8527H57.938V58.6981H53.675V63.8527H51.47ZM72.099 63.8527H69.747L68.816 61.1527H64.504L63.622 63.8527H61.27L65.484 52.0218H67.787L72.099 63.8527ZM68.081 59.1891L66.611 54.82L65.141 59.1891H68.081ZM73.275 63.8527V52.0218H77.881C79.057 52.0218 79.89 52.12 80.38 52.3163C80.919 52.5127 81.311 52.9054 81.654 53.4454C81.948 53.9854 82.144 54.6236 82.144 55.3109C82.144 56.1945 81.899 56.9309 81.409 57.52C80.919 58.1091 80.233 58.4527 79.253 58.6C79.743 58.8945 80.135 59.2381 80.429 59.5818C80.723 59.9254 81.164 60.5636 81.654 61.4963L82.977 63.8036H80.38L78.812 61.2509C78.273 60.3181 77.881 59.7291 77.685 59.5327C77.489 59.2872 77.244 59.14 77.048 59.0418C76.803 58.9436 76.46 58.8945 75.97 58.8945H75.48V63.8527H73.275ZM75.48 57.0291H77.097C78.126 57.0291 78.812 56.98 79.057 56.8818C79.302 56.7836 79.498 56.6363 79.645 56.3909C79.792 56.1454 79.89 55.8509 79.89 55.5072C79.89 55.1145 79.792 54.7709 79.596 54.5254C79.4 54.28 79.106 54.1327 78.763 54.0836C78.567 54.0345 78.077 54.0345 77.146 54.0345H75.48V57.0291ZM84.251 63.8527V52.0218H86.456V57.2745L90.866 52.0218H93.806L89.69 56.6363L94.002 63.8527H91.16L88.171 58.3054L86.407 60.2691V63.8527H84.251Z" fill="black"/>
<path fill-rule="evenodd" clip-rule="evenodd" d="M52.6369 37.5215C52.8247 37.8627 52.8095 38.2798 52.5973 38.6063C51.1075 40.8992 51.0357 43.5644 51.3885 45.7542C51.5632 46.8393 51.8377 47.7755 52.0684 48.4395C52.1222 48.5942 52.1734 48.7336 52.2201 48.8561H99V50.9656H51.519C51.1134 50.9656 50.7439 50.7323 50.5691 50.3657L51.519 49.9108C50.5691 50.3657 50.5687 50.3649 50.5687 50.3649L50.5672 50.3618L50.5642 50.3554L50.5549 50.3354C50.5472 50.3189 50.5367 50.296 50.5237 50.2669C50.4977 50.2088 50.4614 50.1262 50.4175 50.0209C50.3296 49.8106 50.2106 49.5093 50.0799 49.1332C49.8191 48.3828 49.5086 47.3247 49.3097 46.0902C48.9948 44.135 48.948 41.6538 49.9039 39.2516C46.3206 39.877 44.2392 42.1604 42.9974 44.4972C42.2708 45.8646 41.8429 47.2384 41.5973 48.277C41.475 48.7942 41.3992 49.2226 41.3544 49.518C41.332 49.6655 41.3174 49.7794 41.3086 49.8541C41.3042 49.8915 41.3013 49.919 41.2995 49.9359L41.2977 49.9545L41.2976 49.9552C41.2976 49.9552 41.2977 49.9545 40.249 49.8618C39.2002 49.769 39.2003 49.768 39.2003 49.768L39.2008 49.7633L39.2017 49.7532L39.2049 49.7205C39.2077 49.6933 39.9546 49.7636 39.2175 49.6069C39.2289 49.5104 40.6635 49.9358 40.6896 49.7636C40.7072 49.6477 39.3117 48.9531 39.3377 48.807C39.3888 48.5191 39.4573 48.1758 39.5484 47.7907C39.8219 46.634 40.3035 45.0778 41.1388 43.5059C42.8233 40.3356 45.9892 37.0568 51.7001 36.9762C52.089 36.9707 52.4491 37.1804 52.6369 37.5215ZM39.3377 48.807H1.14697V50.9165H40.249C40.7943 50.9165 41.2493 50.4993 41.2976 49.9552" fill="black"/>
<path d="M39.7721 49.1162C39.7721 49.1234 39.7732 49.1291 39.7766 49.1358C39.7926 49.1679 39.8118 49.199 39.8295 49.2302C39.8644 49.2918 39.9073 49.3459 39.9717 49.3769C39.998 49.3896 40.023 49.4046 40.0482 49.4172C40.0892 49.4378 40.1338 49.4504 40.1784 49.4618C40.2227 49.4731 40.261 49.4957 40.3037 49.5105C40.321 49.5165 40.3431 49.513 40.3611 49.513C40.3922 49.513 40.425 49.5098 40.456 49.5134C40.5028 49.5189 40.5499 49.5826 40.5766 49.6154C40.5922 49.6345 40.6065 49.6563 40.6184 49.6779C40.6307 49.7003 40.6438 49.7243 40.6642 49.7405C40.6752 49.7493 40.6861 49.7526 40.694 49.7654C40.7269 49.8194 40.7513 49.8681 40.6753 49.899C40.638 49.9142 40.5989 49.9175 40.5591 49.9193C40.4518 49.9241 40.3481 49.9125 40.2437 49.8875C40.1799 49.8722 40.1096 49.8376 40.0428 49.8376C39.9807 49.8376 39.9185 49.8376 39.8564 49.8376C39.7766 49.8376 39.699 49.8284 39.6197 49.8198C39.5669 49.814 39.5144 49.8047 39.4614 49.8002C39.3987 49.7948 39.3359 49.7986 39.2732 49.7911C39.2313 49.786 39.1881 49.7705 39.1459 49.7695C39.1325 49.7691 39.1195 49.7654 39.1063 49.7654C39.1008 49.7654 39.1012 49.7622 39.1045 49.7577C39.1271 49.7272 39.1655 49.7062 39.1939 49.6817C39.2968 49.5931 39.3868 49.4881 39.4772 49.3869C39.5149 49.3448 39.5434 49.2843 39.5512 49.228C39.5568 49.1884 39.5562 49.1527 39.5481 49.1131C39.5461 49.103 39.5487 49.0824 39.5377 49.0781C39.5255 49.0734 39.5108 49.0764 39.4979 49.073C39.4888 49.0706 39.4681 49.0699 39.4681 49.0601C39.4681 49.0462 39.4641 49.0339 39.4641 49.02" stroke="black" stroke-width="0.4" stroke-linecap="round"/>
<path d="M40.9883 49.8698C41.0027 49.8681 40.9877 49.8271 40.9849 49.8202C40.9825 49.8144 40.997 49.824 41.0027 49.8266C41.0068 49.8286 41.0112 49.83 41.0136 49.8338C41.0243 49.8506 41.0655 49.8542 41.0655 49.8779" stroke="black" stroke-width="0.4" stroke-linecap="round"/>
</svg>

<svg xmlns="http://www.w3.org/2000/svg" width="100" height="100" fill="none"><path fill="#000" d="M3.891 63.853 1 52.022h1.47l1.666 7.756c.147.786.294 1.62.441 2.406.294-1.277.441-2.013.49-2.21l2.058-8.001H8.84l1.568 5.989c.392 1.472.686 2.896.833 4.172.147-.736.294-1.62.539-2.552l1.715-7.61h1.421l-2.989 11.832h-1.372L8.252 54.82c-.196-.736-.294-1.227-.343-1.375-.098.54-.196.982-.294 1.375l-2.303 9.033zm12.593 0V52.022h1.421v11.83zm3.969 0V52.022h4.802q1.47 0 2.205.294c.49.197.882.59 1.225 1.13q.441.81.441 1.767c0 .834-.245 1.521-.735 2.11-.49.59-1.274.933-2.303 1.08q.588.295.882.59c.441.441.833.932 1.176 1.57l1.862 3.24h-1.813l-1.421-2.454c-.441-.687-.784-1.276-1.029-1.62-.294-.393-.49-.638-.735-.785a1.9 1.9 0 0 0-.637-.295c-.196-.049-.49-.049-.833-.049h-1.666v5.253zm1.421-6.628h3.087c.637 0 1.176-.098 1.519-.245.392-.147.637-.393.833-.687.196-.344.294-.688.294-1.08 0-.54-.196-1.031-.539-1.375-.392-.343-.98-.54-1.764-.54h-3.43zm9.506 6.628V52.022h7.84v1.374h-6.37v3.633h5.978v1.375h-6.027v4.025h6.615v1.375H31.38zm9.408-3.83 2.107-.245c.147.786.392 1.375.784 1.718.441.344.931.54 1.617.54s1.225-.147 1.568-.49c.343-.344.539-.688.539-1.13 0-.294-.098-.54-.245-.736s-.392-.344-.784-.49c-.245-.1-.833-.246-1.764-.54-1.176-.295-2.009-.688-2.45-1.18-.686-.637-.98-1.423-.98-2.355 0-.59.147-1.179.49-1.67.294-.54.784-.932 1.372-1.178.588-.294 1.274-.393 2.107-.393 1.372 0 2.401.344 3.087.982.686.639 1.029 1.522 1.078 2.602l-2.205.098q-.147-.883-.588-1.325c-.294-.246-.784-.393-1.372-.393q-.956 0-1.47.442a.88.88 0 0 0-.343.736c0 .295.098.54.343.737.294.245.931.54 2.009.785 1.078.295 1.862.54 2.352.835s.931.687 1.176 1.178c.294.49.441 1.129.441 1.865 0 .688-.196 1.326-.539 1.915a3.22 3.22 0 0 1-1.47 1.325q-.955.442-2.352.442c-1.372 0-2.401-.343-3.136-1.03-.784-.737-1.225-1.768-1.372-3.044m10.682 3.83V52.022h2.205v4.663h4.263v-4.663h2.205v11.83h-2.205v-5.154h-4.263v5.155zm20.629 0h-2.352l-.931-2.7h-4.312l-.882 2.7H61.27l4.214-11.831h2.303zm-4.018-4.664-1.47-4.369-1.47 4.37zm5.194 4.664V52.022h4.606q1.764 0 2.499.294c.539.197.931.59 1.274 1.13.294.54.49 1.178.49 1.865q0 1.325-.735 2.209c-.49.59-1.176.933-2.156 1.08.49.294.882.638 1.176.982s.735.982 1.225 1.914l1.323 2.308H80.38l-1.568-2.553c-.539-.933-.931-1.522-1.127-1.718a1.86 1.86 0 0 0-.637-.491c-.245-.098-.588-.148-1.078-.148h-.49v4.959zm2.205-6.824h1.617c1.029 0 1.715-.049 1.96-.147s.441-.246.588-.491c.147-.246.245-.54.245-.884 0-.392-.098-.736-.294-.982-.196-.245-.49-.392-.833-.441-.196-.05-.686-.05-1.617-.05H75.48zm8.771 6.824V52.022h2.205v5.253l4.41-5.253h2.94l-4.116 4.614 4.312 7.217H91.16l-2.989-5.548-1.764 1.964v3.584z"/><path fill="#000" fill-rule="evenodd" d="M52.637 37.522c.188.34.172.758-.04 1.084-1.49 2.293-1.561 4.958-1.209 7.148a16 16 0 0 0 .832 3.102H99v2.11H51.519c-.406 0-.775-.234-.95-.6l.95-.455-.95.454-.002-.003-.003-.007-.01-.02-.03-.068q-.04-.087-.107-.246a18.188 18.188 0 0 1-1.108-3.93c-.314-1.956-.361-4.437.595-6.84-3.583.626-5.665 2.91-6.907 5.246-.726 1.368-1.154 2.741-1.4 3.78a16 16 0 0 0-.288 1.577l-.01.082-.001.019-1.049-.093-1.049-.094v-.005l.002-.01.003-.032c.003-.028.75.043.013-.114.01-.097 1.445.329 1.472.157.017-.116-1.378-.81-1.352-.957.05-.288.12-.631.21-1.016.274-1.157.755-2.713 1.59-4.285 1.685-3.17 4.851-6.45 10.562-6.53.389-.005.75.204.937.546m-13.3 11.285H1.148v2.11h39.102c.545 0 1-.418 1.049-.962" clip-rule="evenodd"/><path stroke="#000" stroke-linecap="round" stroke-width=".4" d="M39.772 49.116a.04.04 0 0 0 .005.02q.025.048.053.094a.34.34 0 0 0 .142.147q.039.02.076.04.063.029.13.045c.045.011.083.034.126.048.017.007.04.003.057.003.031 0 .064-.003.095 0 .047.006.094.07.12.102q.024.03.042.063c.013.022.026.046.046.063.011.008.022.012.03.024.033.054.057.103-.019.134a.3.3 0 0 1-.116.02 1.1 1.1 0 0 1-.315-.031c-.064-.016-.134-.05-.201-.05h-.187c-.08 0-.157-.01-.236-.018q-.08-.01-.159-.02c-.062-.005-.125-.001-.188-.009-.042-.005-.085-.02-.127-.021-.014 0-.026-.005-.04-.005q-.007 0-.002-.007c.023-.03.062-.052.09-.076.103-.089.193-.194.283-.295a.32.32 0 0 0 .071-.274c-.002-.01 0-.03-.01-.035-.012-.005-.027-.002-.04-.005-.01-.002-.03-.003-.03-.013 0-.014-.004-.026-.004-.04M40.988 49.87c.015-.002 0-.043-.003-.05-.002-.006.012.004.018.007q.006.002.01.007c.011.017.053.02.053.044"/></svg>
